X: 1582
T: the Men From Mallow   #2
R: hornpipe
B: O'Neill's 1850 #1582
O: F.O'Neill
Z: Michael D. Long, 9/28/98
Z: Michael Hogan
Z: Compacted via repeats and multiple endings [JC]
M: C|
L: 1/8
K: D
(AG) | F2(EF) D2(3(ABc) | d2(cB) ABcG |1 E2(DE) C2(CF) | EDEF G2 :|2 FDFA GECE | D2DD D2 :: (3(ABc) | d2(cd) AFDA |
| d2(cd) [1 A2(AB) | cBcA GECE | cBcA G2 :|[2 ABcA | FDFA GECE | D2DD D2 |]| (3(ABc) | d2(cd) AFDA |
| d2(cd) A2(AB) | cBcA GECE | cBcA G2 || (3(ABc) | dcBd cBAc | BAGB A2D2 | FDFA GECE | D2DD D2 |]
